!!!!SEGMENT: pl-kk--kk-i-7--026_sebastian-z-felsztyna--virgini-mariae.krn
!!!cenid: 16xx:816
!!!COM: Sebastian z Felsztyna
!!!COM-rismID: pe30096436
!!!CDT: ~1480->1543
!!!CNT: Polish
!!!OTL: Virgini Mariae
!!!PDT:
!!!AGN: Sacred
!!!SMS-siglum: PL-Kk
!!!SMS-shelfmark: Kk.I.7
!!!SMS-shelfwork: 026 W
!!!SMS-variant:
!!!SMS-altvar:
!!!NIFC-rismSourceID: 300258077
!!!NIFC-rismChildID: 300258103
!!!NIFC-islandoraID: pl-kk:1956
!!!URL-pdf-islandora: https://repozytorium.nifc.pl/islandora/object/pl-kk%3A1956/datastream/PDF/view
!!!URL-scan: https://polish.musicsources.pl/pl/lokalizacje/galeria/rekopisy/6140 @EN{Scan on Polish Music Sources Website} @PL{Skany w portalu Dziedzictwo Muzyki Polskiej w otwartym dostępie}
!!!IIIF: https://repozytorium.nifc.pl/islandora/object/pl-kk%3A1956/datastream/IIIF/view
!!!ONB-nifc: UWAGA: C (skan 0016-0017, s.27-28), A (0103, s.26-27), T (0178-0179, s.21-22), B (0268-0269, s.27-28). Następny utwór: Alleluia Ave Maria
!!!AIN: 1 alto 1 bass 1 soprn 1 tenor
!!!key:
**kern	**text	**text	**kern	**text	**text	**kern	**text	**text	**kern	**text	**text
*part4	*part4	*part4	*part3	*part3	*part3	*part2	*part2	*part2	*part1	*part1	*part1
*staff4	*staff4	*staff4	*staff3	*staff3	*staff3	*staff2	*staff2	*staff2	*staff1	*staff1	*staff1
*Ibass	*	*	*Itenor	*	*	*Ialto	*	*	*Isoprn	*	*
*I"BASSVS.	*	*	*I"TENOR.	*	*	*I"ALTVS.	*	*	*I"CANTVS.	*	*
*I'B	*	*	*I'T	*	*	*I'A	*	*	*I'S.	*	*
*clefF4	*	*	*clefC4	*	*	*clefC4	*	*	*clefC3	*	*
*k[]	*	*	*k[]	*	*	*k[]	*	*	*k[]	*	*
*d:	*	*	*d:	*	*	*d:	*	*	*d:	*	*
*M2/1	*	*	*M2/1	*	*	*M2/1	*	*	*M2/1	*	*
*met(C|)	*	*	*met(C|)	*	*	*met(C|)	*	*	*met(C|)	*	*
=1-	=1-	=1-	=1-	=1-	=1-	=1-	=1-	=1-	=1-	=1-	=1-
*xywh-#268:7222,3833,5813,825	*	*	*xywh-#178:7311,3231,5316,856	*	*	*xywh-#103:1341,3905,5632,816	*	*	*xywh-#16:7323,3139,5723,803	*	*
*all\right	*	*	*all\right	*	*	*all\right	*	*	*all\right	*	*
!LO:TX:t=P:problem="V" przed kluczem	!	!	!LO:TX:t=P:problem="V" przed kluczem	!	!	!LO:TX:t=P:problem="V" przed kluczem	!	!	!LO:TX:t=P:problem="V" przed kluczem	!	!
1D	Vir-	.	1D	Vir-	.	1A	Vir-	.	1d	Vir-	.
!LO:TX:t=P:problem=kreska pseudotaktowa	!	!	!	!	!	!	!	!	!LO:TX:t=P:problem=kreska pseudotaktowa	!	!
1G	-gi-	.	1C	-gi-	.	1c	-gi-	.	1e	-gi-	.
=2-	=2-	=2-	=2-	=2-	=2-	=2-	=2-	=2-	=2-	=2-	=2-
*2\right	*	*	*	*	*	*	*	*	*2\right	*	*
!	!	!	!	!	!	!LO:TX:t=P:problem=kreska pseudotaktowa	!	!	!	!	!
2F\	-ni	.	1D	-ni	.	1A	-ni	.	2f\	-ni	.
2.D/	Ma-	.	.	.	.	.	.	.	2.f\	Ma-	.
.	.	.	1F	Ma-	.	1A	Ma-	.	.	.	.
4E\	.	.	.	.	.	.	.	.	4e\	.	.
!LO:TX:t=P:problem=kreska pseudotaktowa	!	!	!	!	!	!	!	!	!	!	!
2F\	.	.	.	.	.	.	.	.	1d\	.	.
=3-	=3-	=3-	=3-	=3-	=3-	=3-	=3-	=3-	=3-	=3-	=3-
*	*	*	*	*	*	*2\right	*	*	*	*	*
1E	-ri-	.	1G	-ri-	.	2B\	-ri-	.	.	.	.
!	!	!	!	!	!	!LO:TX:t=P:problem=kreska pseudotaktowa	!	!	!LO:TX:t=P:problem=kreska pseudotaktowa	!	!
.	.	.	.	.	.	2G/	-ae	.	2c/	.	.
2.D/	-ae	.	1F	-ae	.	2.A/	lau-	.	1d	-ri-	.
!LO:TX:t=P:problem=kreska pseudotaktowa	!	!	!	!	!	!	!	!	!	!	!
4C/	.	.	.	.	.	4B\	.	.	.	.	.
=4-	=4-	=4-	=4-	=4-	=4-	=4-	=4-	=4-	=4-	=4-	=4-
*	*	*	*lig	*	*	*	*	*	*	*	*
!	!	!	!	!	!	!LO:TX:t=P:problem=kreska pseudotaktowa	!	!	!	!	!
4AA/	.	.	1E	lau-	.	1c	.	.	1e	.	.
4BB/	.	.	.	.	.	.	.	.	.	.	.
!LO:TX:t=P:problem=kreska pseudotaktowa	!	!	!	!	!	!	!	!	!	!	!
2C/	.	.	.	.	.	.	.	.	.	.	.
!	!	!	!	!	!	!	!	!	!LO:TX:t=P:problem=kreska pseudotaktowa	!	!
2.D/	lau-	.	1F	.	.	2.A/	-des	.	1d	-ae	.
4E\	.	.	.	.	.	4G/	.	.	.	.	.
*	*	*	*Xlig	*	*	*	*	*	*	*	*
=5-	=5-	=5-	=5-	=5-	=5-	=5-	=5-	=5-	=5-	=5-	=5-
2F\	.	.	1D	-des	.	2F/	.	.	2r	.	.
!LO:TX:t=P:problem=kreska pseudotaktowa	!	!	!	!	!	!LO:TX:t=P:problem=kreska pseudotaktowa	!	!	!	!	!
2D/	-des	.	.	.	.	2f\	in	.	2d\	lau-	.
(2C/	in-	.	1A	in-	.	2e\	.	.	2e\	-des	.
!	!	!	!	!	!	!	!	!	!LO:TX:t=P:problem=kreska pseudotaktowa	!	!
2D/)	.	.	.	.	.	1d\	to-	.	2f\	in-	.
=6-	=6-	=6-	=6-	=6-	=6-	=6-	=6-	=6-	=6-	=6-	=6-
1E	-to-	.	1G	-to-	.	.	.	.	2g\	-to-	.
!	!	!	!	!	!	!LO:TX:t=P:problem=kreska pseudotaktowa	!	!	!	!	!
.	.	.	.	.	.	2c\	-nent	.	2e\	.	.
!LO:TX:t=P:problem=kreska pseudotaktowa	!	!	!	!	!	!	!	!	!LO:TX:t=P:problem=kreska pseudotaktowa	!	!
1D	.	.	1F	-nent	.	2d\	.	.	1f	-nent	.
.	.	.	.	.	.	4A\	Chri-	.	.	.	.
!	!	!	!	!	!	!LO:TX:t=P:problem=kreska pseudotaktowa	!	!	!	!	!
.	.	.	.	.	.	4B\	.	.	.	.	.
=7-	=7-	=7-	=7-	=7-	=7-	=7-	=7-	=7-	=7-	=7-	=7-
2C/	-nent	.	1G	.	.	4c\	.	.	4e\	Chri-	.
.	.	.	.	.	.	4d\	.	.	4d\	.	.
!	!	!	!	!	!	!LO:TX:t=P:problem=kreska pseudotaktowa	!	!	!	!	!
2C/	Chri-	.	.	.	.	2e\	.	.	4c/	.	.
!	!	!	!	!	!	!	!	!	!LO:TX:t=P:problem=kreska pseudotaktowa	!	!
.	.	.	.	.	.	.	.	.	4B/	.	.
2.D/	-ſti-	.	1F	Chri-	.	2d\	.	.	2.A/	.	.
.	.	.	.	.	.	1A\	.	.	.	.	.
!LO:TX:t=P:problem=kreska pseudotaktowa	!	!	!	!	!	!	!	!	!LO:TX:t=P:problem=kreska pseudotaktowa	!	!
4C/	.	.	.	.	.	.	.	.	4B/	.	.
=8-	=8-	=8-	=8-	=8-	=8-	=8-	=8-	=8-	=8-	=8-	=8-
2AA/	.	.	2E/	.	.	.	.	.	2c/	.	.
!	!	!	!	!	!	!LO:TX:t=P:problem=kreska pseudotaktowa	!	!	!	!	!
2BB-X/	-a-	.	2D/	-sti-	.	2G/	-ſti-	.	1d\	-ſti-	.
1AA	-ni.	.	1E	-a-	.	1A	-a-	.	.	.	.
.	.	.	.	.	.	.	.	.	2c/	-a-	.
=9-	=9-	=9-	=9-	=9-	=9-	=9-	=9-	=9-	=9-	=9-	=9-
0D;;	.	.	0D;	-ni.	.	0Al;	-ni.	.	0dl;	-ni.	.
!LO:PB:g=original	!	!	!LO:LB:g=original	!	!	!LO:PB:g=original	!	!	!LO:LB:g=original	!	!
=10||	=10||	=10||	=10||-	=10||	=10||	=10||	=10||	=10||	=10||	=10||	=10||
*xywh-#269:902,434,6216,1198	*	*	*xywh-#178:7251,3897,6143,1047	*	*	*xywh-#103:7334,554,6185,1095	*	*	*xywh-#16:7232,3688,6222,1164	*	*
*M2/1	*	*	*	*	*	*M2/1	*	*	*M2/1	*	*
*met(C|)	*	*	*	*	*	*met(C|)	*	*	*met(C|)	*	*
!LO:TX:t=P:problem=kreska pseudotaktowa	!	!	!LO:TX:t=P:problem="E" i "M" przed kluczem	!	!	!	!	!	!LO:TX:t=P:problem=E przed kluczem	!	!
0r	.	.	1A	E-	Mors	1c	E-	Mors	1e	E-	Mors
!	!	!	!	!	!	!LO:TX:t=P:problem=kreska pseudotaktowa	!	!	!	!	!
.	.	.	1c	-ua	et	1A	-ua	.	2e\	-ua	et
.	.	.	.	.	.	.	.	.	1f\	tri-	Vi-
=11-	=11-	=11-	=11-	=11-	=11-	=11-	=11-	=11-	=11-	=11-	=11-
!LO:TX:t=P:problem="E" i "M" przed kluczem	!	!	!	!	!	!	!	!	!	!	!
1D	E-	Mors	1d	triſ-	Vi-	2A/	.	et	.	.	.
.	.	.	.	.	.	2.A/	tri-	Vi-	4e\	.	.
!	!	!	!	!	!	!	!	!	!LO:TX:t=P:problem=kreska pseudotaktowa	!	!
.	.	.	.	.	.	.	.	.	4d\	.	.
!LO:TX:t=P:problem=kreska pseudotaktowa	!	!	!	!	!	!	!	!	!	!	!
1F	-ua	et	1A	-tis	-ta	.	.	.	2c/	.	-ta
.	.	.	.	.	.	4B\	.	.	.	.	.
!	!	!	!	!	!	!LO:TX:t=P:problem=kreska pseudotaktowa	!	!	!LO:TX:t=P:problem=kreska pseudotaktowa	!	!
.	.	.	.	.	.	2c\	.	.	2f\	-ſtis	.
=12-	=12-	=12-	=12-	=12-	=12-	=12-	=12-	=12-	=12-	=12-	=12-
1G	triſ-	Vi-	1G	ab-	mo-	2B\	-ſtis	-ta	2d\	ab-	mo-
!	!	!	!	!	!	!	!	!	!LO:TX:t=P:problem=kreska pseudotaktowa	!	!
.	.	.	.	.	.	1d\	.	mo-	2g\	.	-du-
2D/	-tis	-ta	1A	-ſtu-	-du-	.	.	.	2f\	-ſtu-	-lo
!LO:TX:t=P:problem=kreska pseudotaktowa	!	!	!	!	!	!LO:TX:t=P:problem=kreska pseudotaktowa	!	!	!	!	!
2C/	.	mo-	.	.	.	2e\	ab-	.	2e\	-lit	.
=13-	=13-	=13-	=13-	=13-	=13-	=13-	=13-	=13-	=13-	=13-	=13-
2D/	ab-	.	1A,	-lit	-lo	2f\	.	.	2d\	ſed	con-
2E\	.	.	.	.	.	1e\	.	-du-	4c/	.	.
!	!	!	!	!	!	!	!	!	!LO:TX:t=P:problem=kreska pseudotaktowa	!	!
.	.	.	.	.	.	.	.	.	4B/	.	.
1F	-ſtu-	.	1A	Sed	con-	.	.	.	2.A/	Ma-	-ue-
!	!	!	!	!	!	!LO:TX:t=P:problem=kreska pseudotaktowa	!	!	!	!	!
.	.	.	.	.	.	2d\	-ſtu-	-lo	.	.	.
!	!	!	!	!	!	!	!	!	!LO:TX:t=P:problem=kreska pseudotaktowa	!	!
.	.	.	.	.	.	.	.	.	4B/	.	.
=14-	=14-	=14-	=14-	=14-	=14-	=14-	=14-	=14-	=14-	=14-	=14-
!LO:TX:t=P:problem=kreska pseudotaktowa	!	!	!	!	!	!	!	!	!	!	!
1E	.	-da-	1G	Ma-	-ue-	1e	-lit	.	2c/	-ri-	-ne-
!	!	!	!	!	!	!	!	!	!LO:TX:t=P:problem=kreska pseudotaktowa	!	!
.	.	.	.	.	.	.	.	.	2B/	-a	-re
1AA	-lit	-lo	1A	-ri-	-ne-	2e\	Sed	con-	2A/	.	.
!	!	!	!	!	!	!LO:TX:t=P:problem=kreska pseudotaktowa	!	!	!	!	!
.	.	.	.	.	.	2c\	.	.	2e\	.	.
=15-	=15-	=15-	=15-	=15-	=15-	=15-	=15-	=15-	=15-	=15-	=15-
2E\	ſed	con-	1G	-a	-re	1c	Ma-	-ue-	2c/	.	.
!LO:TX:t=P:problem=kreska pseudotaktowa	!	!	!	!	!	!	!	!	!	!	!
2C/	Ma-	-ue-	.	.	.	.	.	.	2.e\	pro-	mi-
1D	-ri-	-ne-	1F	pro	mi-	2A/	-ri-	-ne-	.	.	.
.	.	.	.	.	.	.	.	.	4d\	.	.
!	!	!	!	!	!	!LO:TX:t=P:problem=kreska pseudotaktowa	!	!	!	!	!
.	.	.	.	.	.	2A/	-a	-re	1d\	-tu-	-ran-
=16-	=16-	=16-	=16-	=16-	=16-	=16-	=16-	=16-	=16-	=16-	=16-
*	*	*	*lig	*	*	*	*	*	*	*	*
2AA/	-a	-re	1E	tu-	-ran-	0A	pro-	mi-	.	.	.
!LO:TX:t=P:problem=kreska pseudotaktowa	!	!	!	!	!	!	!	!	!LO:TX:t=P:problem=kreska pseudotaktowa	!	!
2AA/	pro-	mi-	.	.	.	.	.	.	2c/	.	.
1D	-tu-	-ran-	1F	.	.	.	.	.	2d\	-lit	-do
!	!	!	!	!	!	!	!	!	!LO:TX:t=P:problem=kreska pseudotaktowa	!	!
.	.	.	.	.	.	.	.	.	2d\	na-	Ma-
*	*	*	*Xlig	*	*	*	*	*	*	*	*
=17-	=17-	=17-	=17-	=17-	=17-	=17-	=17-	=17-	=17-	=17-	=17-
2GG/	.	.	1D,	-lit	-do	2G/	-tu-	-ran-	2d\	-tum	-ri-
!LO:TX:t=P:problem=kreska pseudotaktowa	!	!	!	!	!	!	!	!	!	!	!
2D/	-lit	-do	.	.	.	1A\	-lit	-do	1f\	.	-ae
2D/	na-	Ma-	1F	na-	Ma-	.	.	.	.	.	.
!	!	!	!	!	!	!LO:TX:t=P:problem=kreska pseudotaktowa	!	!	!	!	!
1F\	.	-ri-	.	.	.	2A/	na-	Ma-	4e\	qui	.
!	!	!	!	!	!	!	!	!	!LO:TX:t=P:problem=kreska pseudotaktowa	!	!
.	.	.	.	.	.	.	.	.	4d\	.	.
=18-	=18-	=18-	=18-	=18-	=18-	=18-	=18-	=18-	=18-	=18-	=18-
!	!	!	!	!	!	!	!	!	!LO:TX:t=P:problem=kreska pseudotaktowa	!	!
.	.	.	1G	-tum	-ri-	1G	-tum	.	1c	.	.
!LO:TX:t=P:problem=kreska pseudotaktowa	!	!	!	!	!	!	!	!	!	!	!
2E\	-tum	-ae	.	.	.	.	.	.	.	.	.
!	!	!	!	!	!	!	!	!	!LO:TX:t=P:problem=kreska pseudotaktowa	!	!
1F	qui	.	1D	qui	-ae	2A/	.	-ri-	1d	re-	fi-
.	.	.	.	.	.	1d\	qui	-ae	.	.	.
=19-	=19-	=19-	=19-	=19-	=19-	=19-	=19-	=19-	=19-	=19-	=19-
2.D/	re-	fi-	1F	re-	fi-	.	.	.	2.f\	-de-	.
.	.	.	.	.	.	4c\	re-	fi-	.	.	.
!LO:TX:t=P:problem=kreska pseudotaktowa	!	!	!	!	!	!LO:TX:t=P:problem=kreska pseudotaktowa	!	!	!	!	!
4E\	-de-	.	.	.	.	4B\	-de-	.	4g\	.	.
*	*	*	*	*	*	*	*	*	*custos:g	*	*
!	!	!	!	!	!	!	!	!	!LO:TX:b:t=P:problem=obie sylaby na marginesie, raczej podpowiadają jak kończy się słowo na następnej stronie	!	!
1F	.	.	1D	-de-	-li-	2A/	.	.	1a	-mit	-li(us)
.	.	.	.	.	.	2B\	.	.	.	.	.
!	!	!	!	!	!	!	!	!	!LO:PB:g=original	!	!
=20-	=20-	=20-	=20-	=20-	=20-	=20-	=20-	=20-	=20-	=20-	=20-
*	*	*	*	*	*	*	*	*	*xywh-#17:846,653,6227,1042	*	*
!	!	!	!	!	!	!LO:TX:t=P:problem=kreska pseudotaktowa	!	!	!	!	!
1G	.	-li-	1C	-mit	-us	1c	.	-li-	4g\	.	.
.	.	.	.	.	.	.	.	.	4f\	.	.
.	.	.	.	.	.	.	.	.	4e\	.	.
.	.	.	.	.	.	.	.	.	2f\	.	.
2F\	-mit	-us	1F	Pec-	re-	2A/	-mit	-us	.	.	.
.	.	.	.	.	.	.	.	.	4e\	de-	li-
!	!	!	!	!	!	!	!	!	!LO:TX:t=P:problem=kreska pseudotaktowa	!	!
1FF/	.	.	.	.	.	1c\	.	.	2f\	-mit	-us,
=21-	=21-	=21-	=21-	=21-	=21-	=21-	=21-	=21-	=21-	=21-	=21-
.	.	.	1F	-ca-	-gnat	.	.	.	2f\	pec-	re-
*custos:AA	*	*	*	*	*	*	*	*	*	*	*
!	!	!	!	!	!	!LO:TX:t=P:problem=kreska pseudotaktowa	!	!	!	!	!
2GG/	.	.	.	.	.	2B\	pec-	re-	4e\	.	.
.	.	.	.	.	.	.	.	.	4d\	.	.
*xywh-#269:1289,1339,5840,1028	*	*	*	*	*	*	*	*	*	*	*
!LO:LB:g=original	!	!	!	!	!	!	!	!	!LO:TX:b:t=P:#below:problem	!	!
2AA/	.	.	2E/	-to-	Vi-	1A	-ca-	-gnat	2c#X/	-ca-	-gnant
!LO:TX:t=P:problem=kreska pseudotaktowa	!	!	!	!	!	!	!	!	!	!	!
2FF/	.	re-	2F/	.	.	.	.	.	1d\	-to-	Vi-
=22-	=22-	=22-	=22-	=22-	=22-	=22-	=22-	=22-	=22-	=22-	=22-
2GG/	pec-	-gnat	1E	.	.	2B-X\	-to-	Vi-	.	.	.
2AA/	-ca-	.	.	.	.	4A/	.	.	2c#/	.	.
!	!	!	!	!	!	!LO:TX:t=P:problem=kreska pseudotaktowa	!	!	!	!	!
.	.	.	.	.	.	4G/	.	.	.	.	.
!	!	!	!LO:TX:b:t=P:problem=sylaba "Dic" w roli "słownego kustosza"	!	!	!	!	!	!	!	!
2BB-X/	-to-	Vi-	1D;	-res.	-uus.	1F	-res	-uus.	1d	-res.	-uus.
2AA/	-res	-uus.	.	.	.	.	.	.	.	.	.
!	!	!	!LO:PB:g=original	!	!	!LO:LB:g=original	!	!	!	!	!
=23||	=23||	=23||	=23||-	=23||	=23||	=23||	=23||	=23||	=23||	=23||	=23||
*	*	*	*xywh-#179:818,474,6228,1167	*	*	*xywh-#103:7339,1360,6002,1024	*	*	*	*	*
*M2/1	*	*	*M2/1	*	*	*M2/1	*	*	*M2/1	*	*
*met(C|)	*	*	*met(C|)	*	*	*met(C|)	*	*	*met(C|)	*	*
!	!	!	!LO:TX:t=P:problem="D" przed kluczem	!	!	!	!	!	!	!	!
1A	Dic	An-	1AA	Dic	An-	1c	Dic	An-	1e	Dic	An-
!	!	!	!	!	!	!LO:TX:t=P:problem=kreska pseudotaktowa	!	!	!LO:TX:t=P:problem=kreska pseudotaktowa	!	!
2G\	no-	-ge-	1C	no-	-ge-	1c	no-	-ge-	1e	no-	-ge-
!LO:TX:t=P:problem=kreska pseudotaktowa	!	!	!	!	!	!	!	!	!	!	!
2E\	-bis	-l(us)	.	.	.	.	.	.	.	.	.
=24-	=24-	=24-	=24-	=24-	=24-	=24-	=24-	=24-	=24-	=24-	=24-
1F	Ma-	est	1D	-bis	-lus	2A/	-bis	-lus	2d\	-bis	-lus
.	.	.	.	.	.	2.d\	Ma-	est	1f\	Ma-	est
1D	-ri-	teſ-	1F	Ma-	eſt	.	.	.	.	.	.
.	.	.	.	.	.	4c\	.	.	.	.	.
.	.	.	.	.	.	4A\	.	.	4e\	.	te-
!	!	!	!	!	!	!LO:TX:t=P:problem=kreska pseudotaktowa	!	!	!LO:TX:t=P:problem=kreska pseudotaktowa	!	!
.	.	.	.	.	.	4B\	.	.	4d\	.	.
=25-	=25-	=25-	=25-	=25-	=25-	=25-	=25-	=25-	=25-	=25-	=25-
!LO:TX:t=P:problem=kreska pseudotaktowa	!	!	!	!	!	!	!	!	!	!	!
1C	-a	-tis	1G	-ri-	teſ-	2c\	-ri-	.	2e\	-ri-	.
.	.	.	.	.	.	1c\	-a	te-	2c/	.	.
!	!	!	!	!	!	!	!	!	!LO:TX:t=P:problem=kreska pseudotaktowa	!	!
2r	.	.	1D	-a	-tis	.	.	.	1d	-a	-ſtis
!	!	!	!	!	!	!LO:TX:t=P:problem=kreska pseudotaktowa	!	!	!	!	!
1F\	Vir-	ad	.	.	.	2B\	Vir-	-ſtis	.	.	.
=26-	=26-	=26-	=26-	=26-	=26-	=26-	=26-	=26-	=26-	=26-	=26-
.	.	.	1C	Vir-	as	2A/	.	ad	2r	.	.
!LO:TX:t=P:problem=kreska pseudotaktowa	!	!	!	!	!	!	!	!	!	!	!
2E\	-go	me	.	.	.	2G/	-go	.	2e\	Vir-	ad
1D	cle-	miſ-	1F	-go	me	2A/	cle-	me	2f\	-go	me
!	!	!	!	!	!	!LO:TX:t=P::problem=kreska pseudotaktowa&colon;między nutą a kropką	!	!	!LO:TX:t=P:problem=kreska pseudotaktowa	!	!
.	.	.	.	.	.	2.B-X\	-mens	miſ-	2d\	.	.
=27-	=27-	=27-	=27-	=27-	=27-	=27-	=27-	=27-	=27-	=27-	=27-
2C/	-mens	-sus	2E/	cle-	miſ-	.	.	.	2e\	Cle-	miſ-
.	.	.	.	.	.	4A/	.	-s(us)	.	.	.
!LO:TX:t=P:problem=kreska pseudotaktowa	!	!	!	!	!	!	!	!	!	!	!
2AA/	et	cae-	2C/	-mens	-s(us)	1A\	et	cae-	2.e\	-mens	-sus
1BB-X	pi-	-leſ-	1D	et	cae-	.	.	.	.	.	.
.	.	.	.	.	.	.	.	.	4d\	.	.
!	!	!	!	!	!	!LO:TX:t=P:problem=kreska pseudotaktowa	!	!	!	!	!
.	.	.	.	.	.	2G/	pi-	-leſ-	1d\	et	cae-
=28-	=28-	=28-	=28-	=28-	=28-	=28-	=28-	=28-	=28-	=28-	=28-
!LO:TX:t=P:problem=kreska pseudotaktowa	!	!	!	!	!	!LO:TX:t=P:problem=kreska pseudotaktowa	!	!	!	!	!
1AA	-a	-tis	1E	pi-	-leſ-	0A	-a	-tis	.	.	.
!	!	!	!	!	!	!	!	!	!LO:TX:t=P:problem=kreska pseudotaktowa	!	!
.	.	.	.	.	.	.	.	.	2c/	pi-	-leſ-
2rC	.	.	1D	-a	-tis	.	.	.	2d\	-a	-tis
!	!	!	!	!	!	!	!	!	!LO:TX:t=P:problem=przekreślona synkopowana wartość	!	!
1D\	quo-	pro	.	.	.	.	.	.	1f\	quo-	pro-
=29-	=29-	=29-	=29-	=29-	=29-	=29-	=29-	=29-	=29-	=29-	=29-
.	.	.	1F	quo-	pro-	2r	.	.	.	.	.
4C/	.	.	.	.	.	2A/	quo-	pro-	4e\	.	.
*	*	*	*	*	*	*	*	*	*custos:c	*	*
!LO:TX:t=P:problem=kreska pseudotaktowa	!	!	!	!	!	!	!	!	!LO:TX:t=P:problem=kreska pseudotaktowa	!	!
4BBny/	.	.	.	.	.	.	.	.	4d\	.	.
*	*	*	*	*	*	*	*	*	*xywh-#17:1263,1446,5627,945	*	*
!	!	!	!	!	!	!	!	!	!LO:LB:g=original	!	!
2AA/	.	.	1A	-mo-	-ceſ-	2c\	.	.	2c/	.	.
!LO:TX:t=P:problem=kreska pseudotaktowa	!	!	!	!	!	!LO:TX:t=P:problem=kreska pseudotaktowa	!	!	!LO:TX:t=P:problem=kreska pseudotaktowa	!	!
2D/	-mo-	ceſ-	.	.	.	2d\	.	.	2f\	-mo-	-ceſ-
=30-	=30-	=30-	=30-	=30-	=30-	=30-	=30-	=30-	=30-	=30-	=30-
2GG/	-do	-sit	1G	-do	-sit	2Bny\	-mo-	-ceſ-	2d\	-do	-sit
!LO:TX:t=P:problem=kreska pseudotaktowa	!	!	!	!	!	!	!	!	!	!	!
2C/	fac-	.	.	.	.	1c\	-do	-sit	1e\	fac-	ex
*custos:D	*	*	*	*	*	*	*	*	*	*	*
2AA/	-ta	ex	1A	fac-	ex	.	.	.	.	.	.
*xywh-#269:1366,2056,5787,1051	*	*	*	*	*	*	*	*	*	*	*
!LO:LB:g=original	!	!	!	!	!	!	!	!	!	!	!
!LO:TX:t=P::problem=kreska pseudotaktowa&colon;między nutą a kropką	!	!	!	!	!	!LO:TX:t=P:problem=kreska pseudotaktowa	!	!	!	!	!
2.D/	.	.	.	.	.	2A/	fac-	ex	1f\	-ta	me
=31-	=31-	=31-	=31-	=31-	=31-	=31-	=31-	=31-	=31-	=31-	=31-
.	.	.	1F	-ta	me	2.d\	-ta	me	.	.	.
4C/	.	.	.	.	.	.	.	.	.	.	.
4BB-X/	.	.	.	.	.	.	.	.	1d\	es	.
!LO:TX:t=P:problem=kreska pseudotaktowa	!	!	!	!	!	!	!	!	!	!	!
4AA/	.	.	.	.	.	4c\	.	.	.	.	.
2GG/	es	me	1G	es	Spes	4B\	es	.	.	.	.
.	.	.	.	.	.	4A/	.	.	.	.	.
!	!	!	!	!	!	!LO:TX:t=P:problem=kreska pseudotaktowa	!	!	!	!	!
2.C/	ge-	ſpes	.	.	.	2G/	.	ſpes	1e\	ge-	Spes
=32-	=32-	=32-	=32-	=32-	=32-	=32-	=32-	=32-	=32-	=32-	=32-
*	*	*	*lig	*	*	*	*	*	*	*	*
.	.	.	1E	ge-	me-	2.c\	ge-	me-	.	.	.
4BBny/	.	.	.	.	.	.	.	.	.	.	.
!	!	!	!	!	!	!	!	!	!LO:TX:t=P:problem=kreska pseudotaktowa	!	!
4AA/	.	.	.	.	.	.	.	.	2c/	-ni-	me-
!LO:TX:t=P:problem=kreska pseudotaktowa	!	!	!	!	!	!	!	!	!	!	!
4GG/	.	.	.	.	.	4B\	.	.	.	.	.
!	!	!	!LO:TX:t=P:problem=nie powinno być zmiany sylaby w trakcie ligatury, ale nie da się tu inaczej	!	!	!	!	!	!	!	!
1FF	.	.	1F	-ni-	.	4A/	.	.	1c	-trix	-a
.	.	.	.	.	.	4G/	.	.	.	.	.
.	.	.	.	.	.	1c\	.	.	.	.	.
*	*	*	*Xlig	*	*	*	*	*	*	*	*
=33-	=33-	=33-	=33-	=33-	=33-	=33-	=33-	=33-	=33-	=33-	=33-
1GG	-ni-	me-	1D	-trix	-a	.	.	.	2r	.	.
!	!	!	!	!	!	!LO:TX:t=P:problem=kreska pseudotaktowa	!	!	!LO:TX:t=P:problem=kreska pseudotaktowa	!	!
.	.	.	.	.	.	2B\	-ni-	.	2G/	cum	Spes
2FF,/	-tris	-a	1F	cum	Sed	1c	-trix	-a	2.A/	tu	me-
!LO:TX:t=P:problem=kreska pseudotaktowa	!	!	!	!	!	!	!	!	!	!	!
2F\	cum	Sed	.	.	.	.	.	.	.	.	.
.	.	.	.	.	.	.	.	.	4B/	.	.
=34-	=34-	=34-	=34-	=34-	=34-	=34-	=34-	=34-	=34-	=34-	=34-
*	*	*	*custos:F	*	*	*	*	*	*	*	*
!	!	!	!	!	!	!	!	!	!LO:TX:t=P:problem=kreska pseudotaktowa	!	!
2E\	tu	in-	1G	tu	in	2r	.	.	1c	ſis	-a
!	!	!	!	!	!	!LO:TX:t=P:problem=kreska pseudotaktowa	!	!	!	!	!
2C/	.	.	.	.	.	2c\	cum	ſed	.	.	.
*	*	*	*xywh-#179:1204,1426,5842,911	*	*	*	*	*	*	*	*
!	!	!	!LO:LB:g=original	!	!	!	!	!	!	!	!
2D/	ſis	-cre-	1F	ſis	cre-	2A/	tu	in-	2r	.	.
!LO:TX:t=P:problem=kreska pseudotaktowa	!	!	!	!	!	!	!	!	!	!	!
2D/	plas-	-du-	.	.	.	2B\	.	.	2f\	pla-	Sed
=35-	=35-	=35-	=35-	=35-	=35-	=35-	=35-	=35-	=35-	=35-	=35-
!LO:TX:t=P:problem=kreska pseudotaktowa	!	!	!	!	!	!	!	!	!	!	!
1C	-ma	-la	1G	pla-	-du-	2c\	ſis	-cre-	2e\	.	.
!	!	!	!	!	!	!LO:TX:t=P:problem=kreska pseudotaktowa	!	!	!LO:TX:t=P:problem=kreska pseudotaktowa	!	!
.	.	.	.	.	.	2c\	plaſ-	-du-	2c/	-ſma	in
*	*	*	*	*	*	*custos:c	*	*	*	*	*
2r	.	.	1A	-ſma	-la	1F	-ma	-la	2d\	.	cre-
2F\	de	ma-	.	.	.	.	.	.	2d\	cum	-du-
!	!	!	!	!	!	!LO:LB:g=original	!	!	!	!	!
=36-	=36-	=36-	=36-	=36-	=36-	=36-	=36-	=36-	=36-	=36-	=36-
*	*	*	*	*	*	*xywh-#103:7344,2121,5855,993	*	*	*	*	*
2E\	.	-net	1G	de	ma-	2r	.	.	2c/	.	-la
!LO:TX:t=P:problem=kreska pseudotaktowa	!	!	!	!	!	!LO:TX:t=P:problem=kreska pseudotaktowa	!	!	!LO:TX:t=P:problem=kreska pseudotaktowa	!	!
2C/	te	.	.	.	.	2c\	de	ma-	2e\	tu	.
2D/	naſ-	Ju-	1F	te	-net	2A/	.	.	2d\	ſis	ma-
!	!	!	!	!	!	!LO:TX:t=P:problem=kreska pseudotaktowa	!	!	!	!	!
2D/	-cen-	-dae-	.	.	.	2B\	te	-net	2f\	pla-	-net
=37-	=37-	=37-	=37-	=37-	=37-	=37-	=37-	=37-	=37-	=37-	=37-
2C/	-tis	-a	2.G/	na-	Ju-	2c\	na-	.	2e\	-sma	.
*	*ij	*ij	*	*	*	*	*	*	*	*	*
!LO:TX:t=P:problem=kreska pseudotaktowa	!	!	!	!	!	!LO:TX:t=P:problem=kreska pseudotaktowa	!	!	!LO:TX:t=P:problem=kreska pseudotaktowa	!	!
2GG/	de	ma-	.	.	.	2B\	.	Ju-	2d\	de	Ju-
.	.	.	4F/	.	.	.	.	.	.	.	.
2AA/	te	-net	2E/	.	.	2A/	-ſcen-	-dae-	2c/	te	.
2BB-X/	naſ-	Ju-	2D/	.	.	2G/	.	.	1d\	na-	.
=38-	=38-	=38-	=38-	=38-	=38-	=38-	=38-	=38-	=38-	=38-	=38-
!	!	!	!	!	!	!LO:TX:a:t=P:problem=po tej nucie dwie kreski i pusty takt	!	!	!	!	!
1AA	-cen-	-dae-	1E	-ſcen-	-dae-	1A	-tis	-a	.	.	.
!	!	!	!	!	!	!	!	!	!LO:TX:t=P:problem=kreska pseudotaktowa	!	!
.	.	.	.	.	.	.	.	.	2c/	-ſcen-	-de-
*custos:A	*	*	*	*	*	*	*	*	*custos:e	*	*
1D	-tis	-a	1Dl;	-tis	-a.	1ryy	.	.	1d	-tis.	-a.
*	*Xij	*Xij	*	*	*	*	*	*	*	*	*
!LO:LB:g=original	!	!	!	!	!	!	!	!	!LO:LB:g=original	!	!
=39||	=39||	=39||	=39||	=39||-	=39||	=39||	=39||	=39||	=39||	=39||	=39||
*xywh-#269:1231,2820,5934,1075	*	*	*	*	*	*	*	*	*xywh-#17:1268,2173,5891,955	*	*
*M2/1	*	*	*M2/1	*	*	*M2/1	*	*	*M2/1	*	*
*met(C|)	*	*	*met(C|)	*	*	*met(C|)	*	*	*met(C|)	*	*
!	!	!	!LO:TX:t=P:problem="C" przed kluczem	!	!	!LO:TX:t=P:problem="C" i "S" przed kluczem	!	!	!LO:TX:t=P:problem=kreska pseudotaktowa	!	!
1A	Cre-	Sci-	1A	CRe-	Sci-	1c	Cre-	Sci-	1e	Cre-	Sci-
2F\	-den-	-mus	1c	-den-	-mus	1.A	-den-	-mus	2f\	-den-	-mus
!LO:TX:t=P:problem=kreska pseudotaktowa	!	!	!	!	!	!	!	!	!	!	!
2F\	-dum	Chriſ-	.	.	.	.	.	.	1f\	-dum	Chri-
=40-	=40-	=40-	=40-	=40-	=40-	=40-	=40-	=40-	=40-	=40-	=40-
1D	est	.	1d	-du(m)	Chriſ-	.	.	.	.	.	.
!	!	!	!	!	!	!LO:TX:t=P:problem=kreska pseudotaktowa	!	!	!	!	!
.	.	.	.	.	.	2B-X\	.	Chr(i-	4e\	.	.
!	!	!	!	!	!	!	!	!	!LO:TX:t=P:problem=kreska pseudotaktowa	!	!
.	.	.	.	.	.	.	.	.	4d\	.	.
*lig	*	*	*	*	*	*	*	*	*	*	*
1F	ma-	-tum	1A	est	-tum	2A/	-dum	.	2c/	est	.
!	!	!	!	!	!	!	!	!	!LO:TX:t=P:problem=kreska pseudotaktowa	!	!
.	.	.	.	.	.	1d\	.	-st)um	2d\	.	.
=41-	=41-	=41-	=41-	=41-	=41-	=41-	=41-	=41-	=41-	=41-	=41-
1E	.	.	1G	ma-	pro-	.	.	.	2e\	ma-	-ſtum
!	!	!	!	!	!	!LO:TX:t=P:problem=kreska pseudotaktowa	!	!	!	!	!
.	.	.	.	.	.	2c\	est	pro-	2g\	-gis	.
*Xlig	*	*	*	*	*	*	*	*	*	*	*
!LO:TX:t=P:problem=kreska pseudotaktowa	!	!	!	!	!	!	!	!	!	!	!
1D,	-gis	pro-	1A,	-gis	-ceſ-	2d\	ma-	-ceſ-	2f\	So-	.
!	!	!	!	!	!	!	!	!	!LO:TX:t=P:problem=kreska pseudotaktowa	!	!
.	.	.	.	.	.	2f\	-gis	-siſ-	2d\	-li	pro-
=42-	=42-	=42-	=42-	=42-	=42-	=42-	=42-	=42-	=42-	=42-	=42-
!	!	!	!	!	!	!LO:TX:t=P:problem=kreska pseudotaktowa	!	!	!	!	!
1D	So-	-ceſ-	1A	So-	-siſ-	1f	So-	-se	2d\	Ga-	-ceſ-
.	.	.	.	.	.	.	.	.	2d\	-bri-	-siſ-
2D/	-li	-siſ-	1A	-li	-se	2d\	-li	.	1f	-e-	-se
!LO:TX:t=P:problem=kreska pseudotaktowa	!	!	!	!	!	!	!	!	!	!	!
2D/	Ga-	-se	.	.	.	1f\	Ga-	ex	.	.	.
=43-	=43-	=43-	=43-	=43-	=43-	=43-	=43-	=43-	=43-	=43-	=43-
!	!	!	!	!	!	!	!	!	!LO:TX:t=P:problem=kreska pseudotaktowa	!	!
1F	-bri-	ex	1A	Ga-	ex	.	.	.	1c	-li	ex
.	.	.	.	.	.	4e\	-bri-	Ma-	.	.	.
!	!	!	!	!	!	!LO:TX:t=P:problem=kreska pseudotaktowa	!	!	!	!	!
.	.	.	.	.	.	4d\	.	.	.	.	.
*	*	*	*custos:G	*	*	*	*	*	*	*	*
!LO:TX:t=P:problem=kreska pseudotaktowa	!	!	!	!	!	!	!	!	!	!	!
1C	-e-	Ma-	1c	-bri-	Ma-	1e	-e-	-ri-	2.g\	for-	Ma-
.	.	.	.	.	.	.	.	.	4f\	.	.
!	!	!	!LO:LB:g=original	!	!	!	!	!	!	!	!
=44-	=44-	=44-	=44-	=44-	=44-	=44-	=44-	=44-	=44-	=44-	=44-
*	*	*	*xywh-#179:1134,2062,5962,957	*	*	*	*	*	*	*	*
1C	-li	-ria	1G	-e-	-ri-	1c	-li	-a	4e\	.	.
.	.	.	.	.	.	.	.	.	4d\	.	.
!	!	!	!	!	!	!	!	!	!LO:TX:t=P:problem=kreska pseudotaktowa	!	!
.	.	.	.	.	.	.	.	.	2e\	.	.
!	!	!	!	!	!	!LO:TX:t=P:problem=kreska pseudotaktowa	!	!	!	!	!
1D	for-	Ve-	1F	-li	-a	1A	.	.	1d	.	-ri-
=45-	=45-	=45-	=45-	=45-	=45-	=45-	=45-	=45-	=45-	=45-	=45-
*	*	*	*lig	*	*	*	*	*	*	*	*
!LO:TX:t=P:problem=kreska pseudotaktowa	!	!	!	!	!	!	!	!	!	!	!
1AA	-ti	-re	1E	for-	Ve-	1.A	for-	Ve-	2c,/	-ti	-a
!	!	!	!	!	!	!	!	!	!LO:TX:t=P:problem=kreska pseudotaktowa	!	!
.	.	.	.	.	.	.	.	.	2e\	quam	Ve-
2r	.	.	1F	.	.	.	.	.	2c\	.	.
*	*	*	*	*	*	*custos:a	*	*	*	*	*
!	!	!	!	!	!	!LO:TX:t=P:problem=kreska pseudotaktowa	!	!	!	!	!
1A\	quam	Tu	.	.	.	2F/	.	.	2d\	.	-re,
*	*	*	*Xlig	*	*	*	*	*	*	*	*
!	!	!	!	!	!	!LO:LB:g=original	!	!	!	!	!
=46-	=46-	=46-	=46-	=46-	=46-	=46-	=46-	=46-	=46-	=46-	=46-
*	*	*	*	*	*	*xywh-#103:7385,2825,6245,1019	*	*	*	*	*
!	!	!	!	!	!	!	!	!	!LO:TX:t=P:problem=kreska pseudotaktowa	!	!
.	.	.	1D	-ti	-re,	2A/	.	.	1f	Ju-	Tu
!LO:TX:t=P:problem=kreska pseudotaktowa	!	!	!	!	!	!LO:TX:t=P:problem=kreska pseudotaktowa	!	!	!	!	!
2F\	Ju-	no-	.	.	.	2Bny\	.	.	.	.	.
2G\	-dae-	-bis	1C	qua(m)	Tu	2c\	-ti	-re	2e\	-dae-	no-
!LO:TX:t=P:problem=kreska pseudotaktowa	!	!	!	!	!	!	!	!	!	!	!
2A\	-o-	na-	.	.	.	1e\	.	Tu	2.c/	-o-	.
=47-	=47-	=47-	=47-	=47-	=47-	=47-	=47-	=47-	=47-	=47-	=47-
2E\	.	.	1E	Ju-	no-	.	.	.	.	.	.
.	.	.	.	.	.	.	.	.	4d\	.	.
!	!	!	!	!	!	!LO:TX:t=P:problem=kreska pseudotaktowa	!	!	!LO:TX:t=P::problem=kreska pseudotaktowa&colon;między nutą a kropką	!	!
1G\	-rum	-te	.	.	.	2c\	quam	.	2.e\	.	-bis
.	.	.	1D	-dae-	-bis	1d	Ju-	no-	.	.	.
.	.	.	.	.	.	.	.	.	4d\	.	.
!LO:TX:t=P:problem=kreska pseudotaktowa	!	!	!	!	!	!	!	!	!	!	!
2F\	pra-	Rex	.	.	.	.	.	.	1d\	-rum	na-
=48-	=48-	=48-	=48-	=48-	=48-	=48-	=48-	=48-	=48-	=48-	=48-
!	!	!	!	!	!	!LO:TX:t=P:problem=kreska pseudotaktowa	!	!	!	!	!
1E	.	.	1G	-o-	na-	1e	-dae-	-bis	.	.	.
!	!	!	!	!	!	!	!	!	!LO:TX:t=P:problem=kreska pseudotaktowa	!	!
.	.	.	.	.	.	.	.	.	2c/	.	.
2D/	.	mi-	1A	-rum	-te	2A/	-o-	na-	2d\	pra-	-te
1D\	-uae	-ſe-	.	.	.	4F/	-r(um)	-te	1f\	.	Rex
!	!	!	!	!	!	!LO:TX:t=P:problem=kreska pseudotaktowa	!	!	!	!	!
.	.	.	.	.	.	4G/	.	.	.	.	.
=49-	=49-	=49-	=49-	=49-	=49-	=49-	=49-	=49-	=49-	=49-	=49-
.	.	.	1A	pra-	Rex	4A/	pra-	Rex	.	.	.
.	.	.	.	.	.	4B\	.	.	.	.	.
*custos:D	*	*	*	*	*	*	*	*	*custos:d	*	*
!	!	!	!	!	!	!LO:TX:t=P:problem=kreska pseudotaktowa	!	!	!LO:TX:t=P:problem=kreska pseudotaktowa	!	!
2C/	.	-re-	.	.	.	2c\	.	.	2e\	-uae	mi-
*	*	*	*	*	*	*	*	*	*xywh-#17:1268,2880,5805,935	*	*
*xywh-#269:1243,3578,5887,1075	*	*	*	*	*	*	*	*	*	*	*
!LO:LB:g=original	!	!	!	!	!	!	!	!	!LO:LB:g=original	!	!
1D	.	.	1F	-uae	.	1A	.	.	2d\	.	.
.	.	.	.	.	.	.	.	.	1d\	Co-	-ſe-
=50-	=50-	=50-	=50-	=50-	=50-	=50-	=50-	=50-	=50-	=50-	=50-
!LO:TX:t=P:problem=kreska pseudotaktowa	!	!	!	!	!	!LO:TX:t=P:problem=kreska pseudotaktowa	!	!	!	!	!
1GG	co-	.	2.G/	Co-	Mi-	1B-X	-uae	.	.	.	.
.	.	.	.	.	.	.	.	.	4c/	-chor-	.
!	!	!	!	!	!	!	!	!	!LO:TX:t=P:problem=kreska pseudotaktowa	!	!
.	.	.	4F/	.	-ſe-	.	.	.	4B/	.	.
2AA/	-chor-	.	2E/	.	.	2A/	co-	mi-	2c/	.	-re-
2BB/	.	.	2D/	-chor-	-re	2G/	.	-ſe-	1d\	.	.
=51-	=51-	=51-	=51-	=51-	=51-	=51-	=51-	=51-	=51-	=51-	=51-
1AA	-ti	-re	1E	-ti.	.	2A/	-chor-	-re-	.	.	.
!	!	!	!	!	!	!LO:TX:t=P:problem=kreska pseudotaktowa	!	!	!LO:TX:t=P:problem=kreska pseudotaktowa	!	!
.	.	.	.	.	.	2A/	-ti	-re	2c/	.	-re
!	!	!	!	!	!	!	!	!	!	!	!
2D;</	.	.	[1Dl;	.	Alleluia.	2F/	.	.	2d\	-ti	.
!LO:TX:t=P:problem=kreska pseudotaktowa	!	!	!	!	!	!LO:TX:t=P:problem=kreska pseudotaktowa	!	!	!LO:TX:t=P:problem=kreska pseudotaktowa	!	!
!	!	!	!	!	!	!	!	!	!LO:TX:t=P:problem=Alleluia obowiązuje dla obu tekstów, zapisane na wysokości pomiędzy górną i dolną linią tekstu.	!	!
2rC	.	.	.	.	.	2A/	.	A-	2f\	Al-	.
=52-	=52-	=52-	=52-	=52-	=52-	=52-	=52-	=52-	=52-	=52-	=52-
2r	.	.	0D_	.	.	1Bny	.	-men	2d\	-le-	.
!LO:TX:t=P:problem=kreska pseudotaktowa	!	!	!	!	!	!	!	!	!	!	!
2D/	.	Al-	.	.	.	.	.	.	2.f\	.	.
2.BB/	.	-le-	.	.	.	2A/	.	.	.	.	.
.	.	.	.	.	.	.	.	.	4e/	.	.
!	!	!	!	!	!	!LO:TX:t=P:problem=kreska pseudotaktowa	!	!	!	!	!
.	.	.	.	.	.	2F/	.	Al-	4d/	.	.
!	!	!	!	!	!	!	!	!	!LO:TX:t=P:problem=kreska pseudotaktowa	!	!
4C/	.	-lu-	.	.	.	.	.	.	4c/	.	.
=53-	=53-	=53-	=53-	=53-	=53-	=53-	=53-	=53-	=53-	=53-	=53-
1D	.	-ia	0D_	.	.	2.G/	.	.	4d\	.	.
.	.	.	.	.	.	.	.	.	4c/	.	.
.	.	.	.	.	.	.	.	.	4B-X/	.	.
!	!	!	!	!	!	!	!	!	!LO:TX:t=P:problem=kreska pseudotaktowa	!	!
.	.	.	.	.	.	4A/	.	-le-	4A/	.	.
2rC	.	.	.	.	.	2B-X\	.	.	2G/	.	.
*	*	*ij	*	*	*	*	*	*	*	*	*
!LO:TX:t=P:problem=kreska pseudotaktowa	!	!	!	!	!	!LO:TX:t=P:problem=kreska pseudotaktowa	!	!	!	!	!
2GG/	.	al-	.	.	.	2A/	.	.	2A/	.	.
=54-	=54-	=54-	=54-	=54-	=54-	=54-	=54-	=54-	=54-	=54-	=54-
2GG/	.	-le-	0D_	.	.	1.G	.	.	1Bny	-lu-	.
2FF/	.	.	.	.	.	.	.	.	.	.	.
1GG	.	-lu-	.	.	.	.	.	.	[1Al;	-ia.	.
.	.	.	.	.	.	4F/	.	-lu-	.	.	.
.	.	.	.	.	.	4E/	.	.	.	.	.
=55-	=55-	=55-	=55-	=55-	=55-	=55-	=55-	=55-	=55-	=55-	=55-
!LO:TX:b:Bi:t=A D(omi)nica Conduct(us)\nad D(omi)nicam Pentecoſ(ten)	!	!	!LO:TX:b:Bi:t=A Paſcha\nad Pentecoſten	!	!	!LO:TX:b:Bi:t=A Paſchate\nad Pentecoſten	!	!	!LO:TX:b:Bi:t=A D(omi)nica in Albis ad\nDnicam Pentecoſten	!	!
0DDl;	.	-ia	0D]	.	.	0F#Xl;	.	-ia.	0A]	.	.
*	*	*Xij	*	*	*	*	*	*	*	*	*
==	==	==	==	==	==	==	==	==	==	==	==
*-	*-	*-	*-	*-	*-	*-	*-	*-	*-	*-	*-
!!!system-decoration: [s1,s2,s3,s4]
!!!RDF**kern: < = below
!!!RDF**kern: l = terminal long
!!!ENC: Marta Lawrence
!!!END: 2021-03-14
!!!ENC: Mateusz Solarz
!!!END: 2021-02-23
!!!ENC-iiif: Mateusz Mrugas
!!!END-iiif: 2022-09-07
!!!YEC: Copyright 2022 Narodowy Instytut Fryderyka Chopina (https://polishscores.org)
!!!YEM: License CC-BY-4.0 (https://creativecommons.org/licenses/by/4.0)
